X:1
T:Title
%%score { 1 | ( 2 3 ) }
L:1/8
M:4/4
K:G
V:1 treble nm="Grand Piano"
V:2 bass 
V:3 bass 
V:1
 z4 z2[Q:1/4=108] D2 | G2 G>A B2 G2 | [EA]2 [EG]>[CE] [B,D]3 D | G2 G>A B2 d>B | [DFA]6 [DGB]2 | %5
 [EGc]2 [EGc]>[EGc] [EGc]3 [DFA] | [DGB]2 [DGB]>[DGB] [DGB]3 [B,DG] | %7
 [CEA]2 [G,EG]>[G,CE] [G,B,D]2 [A,DF]>[CDA] |[M:3/4] [B,DG]6 |[M:1/4] d2 |[M:4/4] d2 d>d d2 Bd | %11
 e2 d>B d3 B | G2 G>G G2 FG | [FA]6 [Fd]2 | d2 d>d d2 Bd | e2 d>B d3 B | %16
 G2 G>[FA] [GB]2 [FA]>[FA] |[M:3/4] [B,G]6 |] %18
V:2
 z4 z2 D,2 | [G,B,]2 [G,B,]>[G,C] [G,D]2 [G,B,D]2 | [C,C]2 [C,G,]>[C,G,] [G,,G,]3 [G,B,] | %3
 [G,B,]2 [G,B,]>[K:treble][G,C] [G,D]2 [G,B,G]>[G,DG] | D,6 G,2 | C,2 C,>C, C,3 D, | %6
 G,2 G,>G, G,3 G, | C,2 C,>C, D,2 D,>C, |[M:3/4] G,,6 |[M:1/4][K:treble] [G,B,G]2 | %10
[M:4/4] [G,B,G]2 [G,B,G]>[G,B,G] [G,B,G]2 [G,DG][G,B,G] | [G,CG]2 [G,B,G]>[G,G] [G,B,G]3 [G,B,G] | %12
 [E,B,]2 [E,B,E]>[E,B,E] [E,B,E]2 [E,B,E][E,B,E] | [D,D]6 [D,A,]2 | z4 z2 .D2 | %15
 [G,CG]2 [G,B,G]>[G,G] [G,B,G]3 [G,B,G] | [E,B,]2 [E,B,E]>[E,B,] [D,D]2 [D,C]>[D,C] | %17
[M:3/4] [G,,G,]6 |] %18
V:3
 x8 | x8 | x8 | x7/2[K:treble] x9/2 | x8 | x8 | x8 | x8 |[M:3/4] x6 |[M:1/4][K:treble] x2 | %10
[M:4/4] x8 | x8 | x8 | x8 | [G,B,G]2 [G,B,G]>[G,B,G] [G,B,G]2 [G,G]-[G,B,G] | x8 | x8 | %17
[M:3/4] x6 |] %18

